lib/brands/logos/rails.svg

<svg xmlns="http://www.w3.org/2000/svg" fill="none" aria-hidden="true" viewBox="0 0 170 68"><g id="Rails"><g id="Vector"><path fill="#CC0000" d="M73.4701 53.2097C73.4701 53.2097 80.5999 52.5986 80.5999 43.3909C80.5999 34.1833 71.9627 33.3278 71.9627 33.3278H56.3993V62.3766H64.2217V55.369L70.9849 62.3766H82.5555L73.4701 53.2097ZM70.4552 47.2614H64.2217V40.6205H70.496C70.496 40.6205 72.2479 41.2724 72.2479 43.9206C72.2479 46.5688 70.4552 47.2614 70.4552 47.2614ZM99.9115 33.5315H91.9668C86.3037 33.5315 84.3889 38.6649 84.3889 41.1094V62.3766H92.3335V57.2839H99.7892V62.3766H107.489V41.1094C107.489 34.9167 101.867 33.5315 99.9115 33.5315ZM99.7892 49.054H92.2928V42.0057C92.2928 42.0057 92.2928 40.4168 94.778 40.4168H97.5077C99.7078 40.4168 99.7485 42.0057 99.7485 42.0057V49.054H99.7892ZM111.115 33.5315H119.386V62.3766H111.115V33.5315ZM130.997 54.9208V33.5315H122.768V62.3766H142.12V54.9208H130.997ZM144.85 55.0023V62.3766H158.172C160.902 62.3766 165.587 60.3802 165.75 54.7986V51.9467C165.75 47.1799 161.839 44.3688 158.172 44.3688H151.531V40.9465H164.691V33.5315H152.061C148.801 33.5315 144.442 36.2204 144.442 41.2316V43.7984C144.442 48.8096 148.761 51.3763 152.061 51.3763C161.228 51.4171 149.861 51.3763 158.335 51.3763V54.9616L144.85 55.0023Z"/><path fill="#CC0000" d="M7.10192 62.3358H39.2878C39.2878 62.3358 33.1358 34.2648 53.5067 22.8979C57.9475 20.7386 72.0849 12.6717 95.2261 29.7832C95.9595 29.1721 96.6521 28.6832 96.6521 28.6832C96.6521 28.6832 75.4664 7.53827 51.877 9.90129C40.0212 10.9606 25.4357 21.7571 16.8799 36.0167C8.32417 50.2763 7.10192 62.3358 7.10192 62.3358ZM74.1627 12.1828L74.3257 9.45313C73.959 9.24942 72.9405 8.76052 70.3737 8.02717L70.2108 10.7161C71.5552 11.1643 72.859 11.6532 74.1627 12.1828ZM70.2922 20.8201L70.1293 23.3868C71.4738 23.4275 72.8182 23.5905 74.1627 23.8757L74.3257 21.3497C72.9405 21.0645 71.596 20.9015 70.2922 20.8201ZM55.2178 8.10866H55.6252L54.8104 5.62341C53.5474 5.62341 52.2437 5.7049 50.8992 5.86786L51.6733 8.27162C52.8548 8.1494 54.0363 8.10866 55.2178 8.10866ZM57.1734 23.1016L58.1105 25.9128C59.292 25.3424 60.4735 24.8535 61.655 24.4868L60.7587 21.7979C59.3735 22.2053 58.192 22.6534 57.1734 23.1016ZM38.6767 12.3865L36.8433 9.57536C35.8248 10.105 34.7655 10.6754 33.6655 11.3272L35.5396 14.1792C36.5989 13.5273 37.6174 12.9162 38.6767 12.3865ZM47.0288 30.7203L48.9844 33.6537C49.677 32.6351 50.4918 31.6981 51.3881 30.761L49.5547 27.9906C48.6177 28.8462 47.7621 29.7832 47.0288 30.7203ZM41.1212 43.8391L44.4213 46.4466C44.5843 44.8576 44.8694 43.2687 45.2769 41.6798L42.3435 39.3575C41.8138 40.865 41.4471 42.3724 41.1212 43.8391ZM23.2764 24.4868L20.3837 21.9608C19.3244 22.9794 18.3059 23.9979 17.3688 25.0164L20.5059 27.7054C21.3615 26.6054 22.2986 25.5053 23.2764 24.4868ZM10.9724 42.6983L6.28708 40.9872C5.51299 42.7391 4.65742 44.7762 4.25 45.8762L8.93529 47.5873C9.46493 46.2021 10.3205 44.2058 10.9724 42.6983ZM40.5101 54.1875C40.5916 56.3468 40.7953 58.0987 40.999 59.3209L45.888 61.0728C45.5213 59.4839 45.1546 57.6913 44.9102 55.7764L40.5101 54.1875Z"/></g></g></svg>

<svg xmlns="http://www.w3.org/2000/svg" fill="none" aria-hidden="true" viewBox="0 0 170 68"><g fill="#C00"><path d="M73.47 53.21s7.13-.611 7.13-9.82c0-9.207-8.637-10.062-8.637-10.062H56.399v29.049h7.823v-7.008l6.763 7.008h11.57L73.47 53.21Zm-3.015-5.949h-6.233v-6.64h6.274s1.752.651 1.752 3.3c0 2.648-1.793 3.34-1.793 3.34Zm29.457-13.73h-7.945c-5.663 0-7.578 5.134-7.578 7.578v21.268h7.945v-5.093h7.455v5.093h7.7V41.109c0-6.192-5.622-7.578-7.578-7.578Zm-.123 15.523h-7.496v-7.048s0-1.59 2.485-1.59h2.73c2.2 0 2.24 1.59 2.24 1.59v7.048h.041Zm11.326-15.523h8.271v28.846h-8.271V33.53Zm19.882 21.39V33.53h-8.229v28.846h19.352V54.92h-11.123Zm13.853.081v7.375h13.322c2.73 0 7.415-1.997 7.578-7.578v-2.852c0-4.767-3.911-7.578-7.578-7.578h-6.641v-3.422h13.16V33.53h-12.63c-3.26 0-7.619 2.69-7.619 7.7v2.567c0 5.012 4.319 7.578 7.619 7.578 9.167.041-2.2 0 6.274 0v3.586l-13.485.04Z"/><path d="M7.102 62.336h32.186s-6.152-28.071 14.219-39.438c4.44-2.16 18.578-10.226 41.72 6.885.733-.61 1.425-1.1 1.425-1.1S75.466 7.538 51.877 9.901c-11.856 1.06-26.441 11.856-34.997 26.116-8.556 14.26-9.778 26.319-9.778 26.319Zm67.06-50.153.164-2.73c-.367-.204-1.385-.692-3.952-1.426l-.163 2.69c1.344.447 2.648.936 3.952 1.466Zm-3.87 8.637-.163 2.567c1.345.04 2.69.203 4.034.489l.163-2.526a28.836 28.836 0 0 0-4.034-.53ZM55.218 8.11h.407l-.815-2.486a32.51 32.51 0 0 0-3.91.245l.773 2.404a34.396 34.396 0 0 1 3.545-.163Zm1.955 14.993.938 2.81a25.852 25.852 0 0 1 3.544-1.425l-.896-2.69a29.555 29.555 0 0 0-3.586 1.305ZM38.677 12.386l-1.834-2.81a64.86 64.86 0 0 0-3.178 1.751l1.875 2.852c1.059-.652 2.077-1.263 3.137-1.793Zm8.352 18.334 1.955 2.934c.693-1.019 1.508-1.956 2.404-2.893l-1.833-2.77a22.538 22.538 0 0 0-2.526 2.73ZM41.12 43.84l3.3 2.607c.163-1.59.448-3.178.856-4.767l-2.934-2.322c-.53 1.507-.896 3.014-1.222 4.481ZM23.276 24.486l-2.892-2.526a70.668 70.668 0 0 0-3.015 3.055l3.137 2.69c.855-1.1 1.793-2.2 2.77-3.22ZM10.972 42.698l-4.685-1.71c-.774 1.751-1.63 3.788-2.037 4.888l4.685 1.711c.53-1.385 1.385-3.381 2.037-4.889Zm29.538 11.49c.082 2.159.285 3.91.489 5.133l4.889 1.752c-.367-1.59-.733-3.382-.978-5.297l-4.4-1.589Z"/></g></svg>
